X:1544
L:1/8
Q:1/8=160
M:6/8
K:G
"^A dorian" f | eAA eAA | BAB GBd | eAA eAA | def gfg | eAA eAA | BAB GBd | dB/c/d edB | BAG A2 :| 
 f | a2 a bge | aga bge | dBB gBB | def gfg | aAA bge | aga bge | dBB gBB | BAG A3 | a2 a bge | 
 aga bge | dBB gBB | def gfg | age edB | dBA GAB | dBd gdB | BAG A3 |]

